images/clients/Amazon.svg

<svg width="85" height="26" viewBox="0 0 85 26" fill="none" xmlns="http://www.w3.org/2000/svg">
<path fill-rule="evenodd" clip-rule="evenodd" d="M52.5795 19.7727C47.6981 23.3665 40.6228 25.2839 34.5312 25.2839C25.9897 25.2839 18.3001 22.1284 12.4827 16.8802C12.0256 16.4675 12.4351 15.9051 12.9836 16.2265C19.2618 19.875 27.0244 22.07 35.0431 22.07C40.451 22.07 46.4 20.9524 51.8701 18.6333C52.6965 18.2827 53.3875 19.1738 52.5795 19.7727" fill="#FF9900"/>
<path fill-rule="evenodd" clip-rule="evenodd" d="M54.6082 17.4536C53.9866 16.6574 50.4837 17.0774 48.9115 17.2637C48.4325 17.3221 48.3593 16.9058 48.7908 16.6063C51.5807 14.6451 56.1586 15.2112 56.6924 15.8686C57.2262 16.5296 56.5535 21.1131 53.9318 23.3007C53.5296 23.6367 53.1456 23.4578 53.3248 23.0122C53.9135 21.544 55.2335 18.2534 54.6082 17.4536" fill="#FF9900"/>
<path fill-rule="evenodd" clip-rule="evenodd" d="M49.0215 2.76108V0.854644C49.0215 0.566123 49.2409 0.372559 49.5041 0.372559H58.0493C58.3235 0.372559 58.5429 0.569776 58.5429 0.854644V2.48716C58.5392 2.76108 58.3089 3.11899 57.8994 3.68507L53.4714 9.99967C55.1168 9.9595 56.8536 10.2042 58.3454 11.0442C58.6818 11.2341 58.7733 11.5117 58.7988 11.7856V13.8198C58.7988 14.0974 58.4917 14.4224 58.1699 14.2545C55.5409 12.8776 52.049 12.7278 49.1421 14.2691C48.846 14.4298 48.5352 14.1084 48.5352 13.8308V11.8988C48.5352 11.5884 48.5388 11.0588 48.8496 10.5877L53.9796 3.23951H49.5151C49.2409 3.23951 49.0215 3.04595 49.0215 2.76108" fill="black"/>
<path fill-rule="evenodd" clip-rule="evenodd" d="M17.8502 14.656H15.2505C15.0019 14.6377 14.8044 14.4515 14.7861 14.2141V0.887339C14.7861 0.62073 15.0092 0.408903 15.2871 0.408903H17.7113C17.9636 0.419852 18.1647 0.613424 18.183 0.854467V2.59655H18.2305C18.8631 0.912902 20.0514 0.127686 21.653 0.127686C23.2801 0.127686 24.2966 0.912902 25.0279 2.59655C25.6568 0.912902 27.0865 0.127686 28.6185 0.127686C29.7082 0.127686 30.9002 0.576902 31.6278 1.5849C32.4505 2.70612 32.2823 4.33498 32.2823 5.76298L32.2787 14.1739C32.2787 14.4405 32.0556 14.656 31.7777 14.656H29.1816C28.922 14.6377 28.7136 14.4296 28.7136 14.1739V7.11063C28.7136 6.5482 28.7648 5.14576 28.6405 4.61255C28.4467 3.71777 27.8653 3.46577 27.1121 3.46577C26.4832 3.46577 25.825 3.88577 25.5581 4.55777C25.2912 5.22976 25.3168 6.35463 25.3168 7.11063V14.1739C25.3168 14.4405 25.0937 14.656 24.8158 14.656H22.2197C21.9565 14.6377 21.7517 14.4296 21.7517 14.1739L21.748 7.11063C21.748 5.6242 21.993 3.43655 20.1465 3.43655C18.2781 3.43655 18.3512 5.56941 18.3512 7.11063V14.1739C18.3512 14.4405 18.1281 14.656 17.8503 14.656" fill="black"/>
<path fill-rule="evenodd" clip-rule="evenodd" d="M65.8997 0.127686C69.7572 0.127686 71.8451 3.43655 71.8451 7.64385C71.8451 11.7087 69.5378 14.9336 65.8997 14.9336C62.1116 14.9336 60.0493 11.6247 60.0493 7.50141C60.0493 3.35255 62.1372 0.127686 65.8997 0.127686V0.127686ZM65.9216 2.84855C64.0056 2.84855 63.8849 5.4562 63.8849 7.08141C63.8849 8.71028 63.8593 12.1871 65.8997 12.1871C67.9144 12.1871 68.0094 9.38228 68.0094 7.67306C68.0094 6.5482 67.9619 5.2042 67.6219 4.13776C67.3293 3.21012 66.748 2.84855 65.9216 2.84855" fill="black"/>
<path fill-rule="evenodd" clip-rule="evenodd" d="M76.8471 14.656H74.2583C73.9987 14.6377 73.7903 14.4296 73.7903 14.1739L73.7866 0.84351C73.8086 0.598815 74.0243 0.408903 74.2876 0.408903H76.6972C76.9239 0.419852 77.1103 0.573251 77.1615 0.781424V2.81933H77.2091C77.9367 0.996902 78.9569 0.127686 80.7522 0.127686C81.9186 0.127686 83.0558 0.547685 83.787 1.69812C84.4671 2.76455 84.4671 4.55776 84.4671 5.84698V14.236C84.4379 14.4697 84.2222 14.656 83.9662 14.656H81.3592C81.1215 14.6377 80.924 14.4624 80.8984 14.236V6.99741C80.8984 5.5402 81.0666 3.40733 79.2713 3.40733C78.6387 3.40733 78.0574 3.83098 77.7685 4.47376C77.4029 5.2882 77.3553 6.09898 77.3553 6.99741V14.1739C77.3517 14.4405 77.125 14.656 76.8471 14.656" fill="black"/>
<path fill-rule="evenodd" clip-rule="evenodd" d="M42.2091 8.29042C42.2091 9.30207 42.2347 10.1457 41.7228 11.0442C41.3096 11.7746 40.6515 12.2238 39.9238 12.2238C38.9256 12.2238 38.3406 11.4642 38.3406 10.3429C38.3406 8.12973 40.326 7.72799 42.2091 7.72799V8.29042V8.29042ZM44.8308 14.6196C44.659 14.773 44.4103 14.784 44.2165 14.6817C43.3536 13.9659 43.1964 13.6335 42.7247 12.9506C41.2987 14.4042 40.2858 14.8388 38.4393 14.8388C36.2491 14.8388 34.5488 13.4911 34.5488 10.7922C34.5488 8.68486 35.6896 7.24956 37.3204 6.54834C38.7318 5.92747 40.7027 5.81791 42.2091 5.64625V5.31025C42.2091 4.69304 42.2567 3.9626 41.891 3.42939C41.5766 2.95095 40.9696 2.75374 40.4321 2.75374C39.4412 2.75374 38.56 3.26139 38.3442 4.31321C38.3004 4.54695 38.1285 4.77704 37.8908 4.78799L35.3715 4.51773C35.1595 4.47026 34.9218 4.2986 34.9839 3.97356C35.5617 0.920349 38.326 0 40.7977 0C42.0629 0 43.7156 0.336 44.7138 1.29287C45.9789 2.47252 45.8583 4.0466 45.8583 5.75947V9.80607C45.8583 11.0222 46.3629 11.5555 46.8382 12.2129C47.0027 12.4466 47.0393 12.7278 46.8272 12.9031C46.297 13.345 45.3537 14.1668 44.8344 14.6269L44.8308 14.6196" fill="black"/>
<path fill-rule="evenodd" clip-rule="evenodd" d="M8.12758 8.29042C8.12758 9.30207 8.15317 10.1457 7.64127 11.0442C7.22808 11.7746 6.57358 12.2238 5.84228 12.2238C4.84407 12.2238 4.26269 11.4642 4.26269 10.3429C4.26269 8.12973 6.24815 7.72799 8.12758 7.72799V8.29042V8.29042ZM10.7493 14.6196C10.5774 14.773 10.3288 14.784 10.135 14.6817C9.27205 13.9659 9.11847 13.6335 8.64313 12.9506C7.21711 14.4042 6.20793 14.8388 4.35776 14.8388C2.17119 14.8388 0.467285 13.4911 0.467285 10.7922C0.467285 8.68486 1.61176 7.24956 3.23888 6.54834C4.65028 5.92747 6.62111 5.81791 8.12758 5.64625V5.31025C8.12758 4.69304 8.17511 3.9626 7.81312 3.42939C7.495 2.95095 6.88803 2.75374 6.35419 2.75374C5.36329 2.75374 4.47842 3.26139 4.26269 4.31321C4.21881 4.54695 4.04696 4.77704 3.81295 4.78799L1.28999 4.51773C1.07791 4.47026 0.8439 4.2986 0.902404 3.97356C1.48378 0.920349 4.24441 0 6.71618 0C7.98131 0 9.63404 0.336 10.6323 1.29287C11.8974 2.47252 11.7767 4.0466 11.7767 5.75947V9.80607C11.7767 11.0222 12.2813 11.5555 12.7567 12.2129C12.9249 12.4466 12.9614 12.7278 12.7493 12.9031C12.2192 13.345 11.2758 14.1668 10.7566 14.6269L10.7493 14.6196" fill="black"/>
</svg>

<svg xmlns="http://www.w3.org/2000/svg" width="85" height="26" fill="none" fill-rule="evenodd" xmlns:v="https://vecta.io/nano"><path d="M52.58 19.773c-4.881 3.594-11.957 5.511-18.048 5.511-8.541 0-16.231-3.155-22.048-8.404-.457-.413-.048-.975.501-.654 6.278 3.648 14.041 5.843 22.06 5.843 5.408 0 11.357-1.118 16.827-3.437.826-.351 1.517.541.709 1.139m2.027-2.317c-.622-.796-4.124-.376-5.697-.19-.479.058-.552-.358-.121-.657 2.79-1.961 7.368-1.395 7.902-.738s-.139 5.244-2.761 7.432c-.402.336-.786.157-.607-.288.589-1.468 1.909-4.759 1.283-5.559" fill="#f90"/><g fill="#000"><path d="M49.022 2.761V.855a.47.47 0 0 1 .483-.482h8.545c.274 0 .494.197.494.482v1.633c-.004.274-.234.632-.644 1.198L53.471 10c1.645-.04 3.382.205 4.874 1.045.336.19.428.467.453.741v2.034c0 .278-.307.603-.629.435-2.629-1.377-6.121-1.527-9.028.015-.296.161-.607-.161-.607-.438V11.9c0-.31.004-.84.314-1.311l5.13-7.348h-4.465c-.274 0-.494-.194-.494-.478M17.85 14.656h-2.6a.49.49 0 0 1-.464-.442V.887c0-.267.223-.478.501-.478h2.424a.49.49 0 0 1 .472.446v1.742h.047C18.863.913 20.051.128 21.653.128c1.627 0 2.644.785 3.375 2.469C25.657.913 27.087.128 28.619.128c1.09 0 2.282.449 3.009 1.457.823 1.121.654 2.75.654 4.178l-.004 8.411a.49.49 0 0 1-.501.482h-2.596c-.26-.018-.468-.226-.468-.482V7.111c0-.562.051-1.965-.073-2.498-.194-.895-.775-1.147-1.528-1.147-.629 0-1.287.42-1.554 1.092s-.241 1.797-.241 2.553v7.063a.49.49 0 0 1-.501.482H22.22a.49.49 0 0 1-.468-.482l-.004-7.063c0-1.486.245-3.674-1.602-3.674-1.868 0-1.795 2.133-1.795 3.674v7.063a.49.49 0 0 1-.501.482M65.9.128c3.858 0 5.945 3.309 5.945 7.516 0 4.065-2.307 7.29-5.945 7.29-3.788 0-5.85-3.309-5.85-7.432 0-4.149 2.088-7.374 5.85-7.374h0zm.022 2.721c-1.916 0-2.037 2.608-2.037 4.233s-.026 5.106 2.015 5.106c2.015 0 2.11-2.805 2.11-4.514 0-1.125-.047-2.469-.388-3.535-.293-.928-.874-1.289-1.7-1.289m10.925 11.806h-2.589c-.26-.018-.468-.226-.468-.482L73.787.844c.022-.245.238-.435.501-.435h2.41c.227.011.413.164.464.373V2.82h.048C77.937.997 78.957.128 80.752.128c1.166 0 2.304.42 3.035 1.57.68 1.066.68 2.86.68 4.149v8.389a.5.5 0 0 1-.501.42h-2.607c-.238-.018-.435-.194-.461-.42V6.997c0-1.457.168-3.59-1.627-3.59-.633 0-1.214.424-1.503 1.066-.366.814-.413 1.625-.413 2.524v7.176a.5.5 0 0 1-.508.482"/><path d="M42.209 8.29c0 1.012.026 1.855-.486 2.754-.413.73-1.071 1.18-1.799 1.18-.998 0-1.583-.76-1.583-1.881 0-2.213 1.985-2.615 3.868-2.615v.562h0zm2.622 6.329c-.172.153-.421.164-.614.062-.863-.716-1.02-1.048-1.492-1.731-1.426 1.454-2.439 1.888-4.285 1.888-2.19 0-3.891-1.348-3.891-4.047 0-2.107 1.141-3.543 2.772-4.244 1.411-.621 3.382-.73 4.889-.902V5.31c0-.617.048-1.348-.318-1.881-.314-.478-.921-.676-1.459-.676-.991 0-1.872.508-2.088 1.559-.044.234-.216.464-.453.475l-2.519-.27c-.212-.047-.45-.219-.388-.544C35.562.92 38.326 0 40.798 0c1.265 0 2.918.336 3.916 1.293 1.265 1.18 1.145 2.754 1.145 4.467v4.047c0 1.216.505 1.749.98 2.407.164.234.201.515-.011.69l-1.993 1.724-.004-.007M8.128 8.29c0 1.012.026 1.855-.486 2.754-.413.73-1.068 1.18-1.799 1.18-.998 0-1.58-.76-1.58-1.881 0-2.213 1.985-2.615 3.865-2.615v.562h0zm2.622 6.329c-.172.153-.421.164-.614.062-.863-.716-1.017-1.048-1.492-1.731-1.426 1.454-2.435 1.888-4.285 1.888-2.187 0-3.89-1.348-3.89-4.047 0-2.107 1.144-3.543 2.772-4.244 1.411-.621 3.382-.73 4.889-.902V5.31c0-.617.048-1.348-.314-1.881-.318-.478-.925-.676-1.459-.676-.991 0-1.876.508-2.091 1.559-.044.234-.216.464-.45.475l-2.523-.27c-.212-.047-.446-.219-.388-.544C1.484.92 4.244 0 6.716 0c1.265 0 2.918.336 3.916 1.293 1.265 1.18 1.144 2.754 1.144 4.467v4.047c0 1.216.505 1.749.98 2.407.168.234.205.515-.007.69l-1.993 1.724-.007-.007"/></g></svg>
